X:199
T:Lord Nelsons Hornpipe
O:No 199 Page 98 William Clarke of Feltwell
M:4/4
L:1/8
N:In m.s key given as D
N:Double notes given in bar B6 as in m.s.
K:G
Bc|dBec BAcA|GFAFG2Bd|ecge |edcB|BAcA GFED|dBec BAcA|GFAF Ggec|BAcA GFAF|G2G2G2::Bc|dfge edcB|edefg2gf|edcB AGFE|D2D2D2GF|EGAF GBdB|[Ac][ce][eg][ce] dBec|BAcA GFAF|G2G2G2:|

